ix/driving_bold.svg

<svg viewBox="0 0 24 24" fill="none" xmlns="http://www.w3.org/2000/svg" height="1em" width="1em">
  <path d="M12 18.75C11.59 18.75 11.25 18.41 11.25 18V17C11.25 16.59 11.59 16.25 12 16.25C12.41 16.25 12.75 16.59 12.75 17V18C12.75 18.41 12.41 18.75 12 18.75Z" fill="#292D32"/>
  <path d="M12 22.75C11.59 22.75 11.25 22.41 11.25 22V21C11.25 20.59 11.59 20.25 12 20.25C12.41 20.25 12.75 20.59 12.75 21V22C12.75 22.41 12.41 22.75 12 22.75Z" fill="#292D32"/>
  <path d="M1.99814 22.7481C1.93814 22.7481 1.87814 22.7381 1.81814 22.7281C1.41814 22.6281 1.16814 22.2181 1.26814 21.8181L2.26814 17.8181C2.36814 17.4181 2.76814 17.1681 3.17814 17.2681C3.57814 17.3681 3.82814 17.7781 3.72814 18.1781L2.72814 22.1781C2.63814 22.5181 2.33814 22.7481 1.99814 22.7481Z" fill="#292D32"/>
  <path d="M21.7526 22.5026C21.4126 22.5026 21.1126 22.2726 21.0226 21.9326L20.0226 17.9326C19.9226 17.5326 20.1626 17.1226 20.5726 17.0226C20.9726 16.9226 21.3826 17.1626 21.4826 17.5726L22.4826 21.5726C22.5826 21.9726 22.3426 22.3826 21.9326 22.4826C21.8726 22.4926 21.8126 22.5026 21.7526 22.5026Z" fill="#292D32"/>
  <path d="M19.1383 5.3C19.1383 5.6 18.8883 5.84 18.5983 5.84H5.52828C5.22828 5.84 4.98828 5.59 4.98828 5.3C4.98828 5 5.23828 4.76 5.52828 4.76H6.26828L6.54828 3.45C6.80828 2.17 7.34828 1 9.50828 1H14.5983C16.7583 1 17.3083 2.17 17.5683 3.44L17.8483 4.75H18.5883C18.8883 4.75 19.1383 5 19.1383 5.3Z" fill="#292D32"/>
  <path d="M19.4482 9.39969C19.3382 8.19969 19.0182 6.92969 16.6882 6.92969H7.42819C5.09819 6.92969 4.78819 8.20969 4.66819 9.39969L4.25819 13.8197C4.20819 14.3697 4.38819 14.9197 4.76819 15.3397C5.15819 15.7597 5.69819 15.9997 6.27819 15.9997H7.63819C8.81819 15.9997 9.03819 15.3297 9.18819 14.8797L9.33819 14.4397C9.50819 13.9397 9.54819 13.8197 10.1982 13.8197H13.9182C14.5682 13.8197 14.5882 13.8897 14.7782 14.4397L14.9282 14.8797C15.0682 15.3297 15.2982 15.9997 16.4682 15.9997H17.8282C18.3982 15.9997 18.9482 15.7597 19.3382 15.3397C19.7182 14.9297 19.8982 14.3697 19.8482 13.8197L19.4482 9.39969ZM9.87819 10.9197H7.70819C7.40819 10.9197 7.16819 10.6697 7.16819 10.3797C7.16819 10.0897 7.41819 9.83969 7.70819 9.83969H9.88819C10.1882 9.83969 10.4282 10.0897 10.4282 10.3797C10.4282 10.6697 10.1782 10.9197 9.87819 10.9197ZM16.4082 10.9197H14.2282C13.9282 10.9197 13.6882 10.6697 13.6882 10.3797C13.6882 10.0897 13.9382 9.83969 14.2282 9.83969H16.4082C16.7082 9.83969 16.9482 10.0897 16.9482 10.3797C16.9482 10.6697 16.7082 10.9197 16.4082 10.9197Z" fill="#292D32"/>
</svg>

<svg viewBox="0 0 24 24" fill="none" xmlns="http://www.w3.org/2000/svg" height="1em" width="1em">
  <path d="M12 18.75c-.41 0-.75-.34-.75-.75v-1c0-.41.34-.75.75-.75s.75.34.75.75v1c0 .41-.34.75-.75.75Zm0 4c-.41 0-.75-.34-.75-.75v-1c0-.41.34-.75.75-.75s.75.34.75.75v1c0 .41-.34.75-.75.75Zm-10.002-.002c-.06 0-.12-.01-.18-.02-.4-.1-.65-.51-.55-.91l1-4a.75.75 0 1 1 1.46.36l-1 4c-.09.34-.39.57-.73.57Zm19.755-.245c-.34 0-.64-.23-.73-.57l-1-4c-.1-.4.14-.81.55-.91.4-.1.81.14.91.55l1 4a.748.748 0 0 1-.73.93ZM19.138 5.3c0 .3-.25.54-.54.54H5.528c-.3 0-.54-.25-.54-.54 0-.3.25-.54.54-.54h.74l.28-1.31c.26-1.28.8-2.45 2.96-2.45h5.09c2.16 0 2.71 1.17 2.97 2.44l.28 1.31h.74c.3 0 .55.25.55.55Zm.31 4.1c-.11-1.2-.43-2.47-2.76-2.47h-9.26c-2.33 0-2.64 1.28-2.76 2.47l-.41 4.42c-.05.55.13 1.1.51 1.52.39.42.93.66 1.51.66h1.36c1.18 0 1.4-.67 1.55-1.12l.15-.44c.17-.5.21-.62.86-.62h3.72c.65 0 .67.07.86.62l.15.44c.14.45.37 1.12 1.54 1.12h1.36c.57 0 1.12-.24 1.51-.66.38-.41.56-.97.51-1.52l-.4-4.42Zm-9.57 1.52h-2.17c-.3 0-.54-.25-.54-.54 0-.29.25-.54.54-.54h2.18c.3 0 .54.25.54.54 0 .29-.25.54-.55.54Zm6.53 0h-2.18c-.3 0-.54-.25-.54-.54 0-.29.25-.54.54-.54h2.18c.3 0 .54.25.54.54 0 .29-.24.54-.54.54Z" fill="#292D32"/>
</svg>
